!!!OTL: The Mucking of Geordie's Byer 
!!!id: HA051
**kern
*clefF4
*k[f#c#g#]
*E:
*M3/4
{8b
8a
=1
4g#
4e
4e
=2
2e
4d
=3
4e
4g#}
{4a
=4
4.b
8a
4g#
=5
4.g#
8a
4b
=6
2d}
{8b
8a
=7
4g#
4e
4e
=8
4.e
8g#
8e
8d
=9
4e
4g#}
{4a
=10
4.b
8a
4g#
=11
4.a
8g#
4a
=12
2f#}
{4cc#
=13
4b
4dd
4ee
=14
4b
4a
4g#
=15
4.g#}
{8a
8b
8g#
=16
4a
4b
4dd
=17
4b
4a
4g#
=18
2d}
{8b
8a
=19
4g#
4e
4e
=20
4e
4g#
8e
8d
=21
4e
4g#}
{4a
=22
4b
4a
4g#
=23
4.g#
8a
4b
=24
2e}
==
*-
!!!minrhy: 8
!!!meter: 3/4 
!!!cut: The Mucking of Geordie's Byer 
!!!key: HA051  08  e 3/4 
